packages/foundations/assets/icons/functional/images/transportation/taxi_24_inverted.svg

<svg width="24" height="24" viewBox="0 0 24 24" fill="none" xmlns="http://www.w3.org/2000/svg">
<g clip-path="url(#clip0_2214_6770)">
<path fill-rule="evenodd" clip-rule="evenodd" d="M16.8069 5.07495C17.7987 5.07495 18.6546 5.74732 18.9491 6.70569L19.939 10.924L21.3518 10.925C21.6882 10.925 21.9932 11.1899 21.9932 11.4709L22 12.2356C22 12.5702 21.7426 12.9245 21.411 12.9245H20.5169C20.5718 13.0677 20.583 13.3301 20.5505 13.7115L20.1787 16.9333C20.0718 17.8596 19.548 18.6535 18.8005 19.1261L18.8 20.925C18.8 21.4772 18.3523 21.925 17.8 21.925H17.2C16.6477 21.925 16.2 21.4772 16.2 20.925V19.688C14.8003 19.8461 13.4003 19.9251 12 19.925C10.5997 19.9248 9.19932 19.8455 7.799 19.687L7.8 20.925C7.8 21.4772 7.35228 21.925 6.8 21.925H6.2C5.64772 21.925 5.2 21.4772 5.2 20.925L5.19951 19.1261C4.50533 18.6872 3.95567 17.9305 3.85046 17.1297C3.78032 16.5957 3.64667 15.4564 3.44951 13.7115C3.41838 13.4418 3.43142 13.1771 3.48289 12.9247L2.64823 12.925C2.2782 12.925 2 12.6036 2 12.2356V11.569C2 11.2003 2.2782 10.925 2.64823 10.925L4.06 10.924L5.00712 6.868C5.23788 5.87905 6.11163 5.07495 7.19309 5.07495H16.8069ZM10.3834 13.9317C9.88604 13.9894 9.5 14.4121 9.5 14.925C9.5 15.4378 9.88604 15.8605 10.3834 15.9182H13.6166C14.114 15.8605 14.5 15.4378 14.5 14.925C14.5 14.4121 14.114 13.9894 13.6166 13.9317H10.3834ZM5.88338 13.9317C5.38604 13.9894 5 14.4121 5 14.925C5 15.4378 5.38604 15.8605 5.88338 15.9182H7.11662C7.61396 15.8605 8 15.4378 8 14.925C8 14.4121 7.61396 13.9894 7.11662 13.9317H5.88338ZM16.8834 13.9317C16.386 13.9894 16 14.4121 16 14.925C16 15.4378 16.386 15.8605 16.8834 15.9182H18.1166C18.614 15.8605 19 15.4378 19 14.925C19 14.4121 18.614 13.9894 18.1166 13.9317H16.8834ZM7.19309 6.77495C6.98486 6.77495 6.78701 6.91869 6.69522 7.14997L5.806 10.924H18.193L17.3373 7.25429C17.2778 6.99914 17.0877 6.77495 16.8069 6.77495H7.19309ZM14 2.07495C14.4694 2.07495 14.85 2.45551 14.85 2.92495C14.85 3.35828 14.5 3.77495 14 3.77495H10C9.53056 3.77495 9.15 3.39439 9.15 2.92495C9.15 2.49162 9.5 2.07495 10 2.07495H14Z" fill="#1A1C1F"/>
</g>
<defs>
<clipPath id="clip0_2214_6770">
<rect width="24" height="24" fill="white"/>
</clipPath>
</defs>
</svg>

<svg xmlns="http://www.w3.org/2000/svg" width="24" height="24" fill="none"><g clip-path="url(#a)"><path fill="#1A1C1F" fill-rule="evenodd" d="M16.807 5.075c.992 0 1.848.672 2.142 1.63l.99 4.219 1.413.001c.336 0 .641.265.641.546l.007.765c0 .334-.257.688-.589.688h-.894q.082.216.034.787l-.372 3.222a3 3 0 0 1-1.378 2.193l-.001 1.799a1 1 0 0 1-1 1h-.6a1 1 0 0 1-1-1v-1.237a37.4 37.4 0 0 1-8.401-.001l.001 1.238a1 1 0 0 1-1 1h-.6a1 1 0 0 1-1-1v-1.799c-.695-.439-1.244-1.196-1.35-1.996q-.105-.801-.4-3.418a2.5 2.5 0 0 1 .033-.787h-.835c-.37 0-.648-.321-.648-.69v-.666a.63.63 0 0 1 .648-.644l1.412-.001.947-4.056c.23-.989 1.105-1.793 2.186-1.793zm-6.424 8.857a1 1 0 0 0 0 1.986h3.234a1 1 0 0 0 0-1.986zm-4.5 0a1 1 0 0 0 0 1.986h1.234a1 1 0 0 0 0-1.986zm11 0a1 1 0 0 0 0 1.986h1.234a1 1 0 0 0 0-1.986zm-9.69-7.157c-.208 0-.406.144-.498.375l-.889 3.774h12.387l-.856-3.67c-.06-.255-.25-.479-.53-.479zM14 2.075a.85.85 0 0 1 0 1.7h-4a.85.85 0 0 1 0-1.7z" clip-rule="evenodd"/></g><defs><clipPath id="a"><path fill="#fff" d="M0 0h24v24H0z"/></clipPath></defs></svg>
